**kern
*staff1
=1-
*clefG2
*k[b-e-a-]
*met(c)
*M4/4
2r
4r
4b-\
=2
(4ee-\
4b-\
4r
8g/
8a-/
=3
4b-\
4b-\
4b-\
4d/)
=4
!!linebreak:original
4f/
4e-/
4r
4e-/
=5
4a-/
8b-\L
8cc\J
4b-\
4a-/
=6
4g/
4r
4r
4g/
=7
!!linebreak:original
2cc\
2dd\
=8
4.ee-\
8dd\
8ee-\
8dd\
8ee-\
8cc\
=9
4b-\
4a-/
4r
4f/
=10
!!linebreak:original
2b-\
2b-\
=11
4.dd\
8cc\
8b-\
8a-/
8g/
8f/
=12
4e-/
4r
2r
=13
!!linebreak:original
4r
2r
4b-\
=14
4ee-\
4b-\
4r
8g/
8a-/
=15
4b-\
4b-\
8b-\L
8bn\J
8cc\L
8a-\J
=16
!!linebreak:original
4a-/
4g/
4r
4ee-\
=17
4ee-\
ffq/
ee-q/
8dd\L
8cc\J
8b-\L
8bn\J
8cc\L
8a-\J
=18
4g/
4r
4r
4g/
=19
!!linebreak:original
2cc\
2dd\
=20
4ee-\
ffq/
ee-q/
ddq/
8ee-\L
8ff\J
8gg\
8ee-\
8b-\
8g/
=21
4f/
4cc\
8r
8A-/
8B-/
8c/
=22
!!linebreak:original
8B-/L
8e-/J
8g/L
8b-/J
4cc-\
8.b-/L
16d/JJ
=23
4e-/
4r
4r
4g/
=24||
!!linebreak:original
2.cc\
4dd\
=25
2.ee-\
8ff\L
8dd\J
=26
4cc\
4bn\
4cc\
4dd\
=27
!!linebreak:original
2dd\
4ee-\
4cc\
=28
4ff\
8ee-\L
8dd\J
4.dd\
8cc\
=29
4cc\
4r
4r
4cc\
=30
!!linebreak:original
2dd-\
2cc\
=31
2.ff\
8ee-\L
8dd-\J
=32
4cc\
4b-\
4a-/
4g/
=33
!!linebreak:original
2g/
4a-/
4f/
=34
2cc\
2cc\
=35
4b-\
4.ee-\
(8cc/L
8a-/
8f/J)
=36
!!linebreak:original
(4e-/
2g/)
4f/
=37
4e-/
4r
4r
4e-/
=38||
2.cc\
8b-/L
8a-/J
=39
!!linebreak:original
(4g/
2f/)
4e-/
=40
4d-/
4f/
4b-\
4a-/
=41
4a-/
4g/
4r
4b-\
=42
!!linebreak:original
[4ee-\
4een\]
8ff\L
8cc\J
8dd-\L
8b-\J
=43
4a-/
4g/
2r
=44
2b-\
4g/
4e-/
=45
!!linebreak:original
4cc\
4r
4r
4a-/
=46
4ee-\
4cc\
4a-/
4g-/
=47
4g-/
4f/
4r
4f/
=48
!!linebreak:original
2.dd-\
8cc\L
8b-\J
=49
4a-/
(4g/
4a-/
4dd-\)
=50
2cc\
(4.b-\
8a-/)
=51
!!linebreak:original
4a-/
4r
2r
=52
4r
2r
4b-\
=53
4ee-\
4b-\
4g/
4e-/
=54
!!linebreak:original
4r
8g/
8a-/
4b-\
4d/
=55
4f/
4e-/
4r
4e-/
=56
4a-/
8b-\L
8cc\J
4b-\
4a-/
=57
!!linebreak:original
4g/
4r
4r
4g/
=58
(4ee-\
[4cc\)
4cc\]
[4g/
=59
4g/]
[4e-/
4e-/]
4c/
=60
!!linebreak:original
4B-/
4dd\
8dd\L
16ee-\
16dd\JJ
8cc\L
8b-\J
=61
4ff\
4ee-\
4r
4b-\
=62
2ee-\
2bn\
=63
!!linebreak:original
(4cc\
4g/)
(4a-/
4f/)
=64
4b-\
2g/
4e-/
=65
4cc\
2cc\
4d/
=66
!!linebreak:original
4e-/
4r
2r
=67
1r
=68
1r
=69
1r
==
*-
